svg/emoji_u1f9e6.svg

<?xml version="1.0" encoding="UTF-8" standalone="no"?>
<svg
   width="128"
   height="128"
   version="1.1"
   id="svg32049"
   sodipodi:docname="emoji_u1f9e6.svg"
   inkscape:version="1.2.2 (732a01da63, 2022-12-09)"
   xmlns:inkscape="http://www.inkscape.org/namespaces/inkscape"
   xmlns:sodipodi="http://sodipodi.sourceforge.net/DTD/sodipodi-0.dtd"
   xmlns:xlink="http://www.w3.org/1999/xlink"
   xmlns="http://www.w3.org/2000/svg"
   xmlns:svg="http://www.w3.org/2000/svg">
  <sodipodi:namedview
     id="namedview32051"
     pagecolor="#ffffff"
     bordercolor="#000000"
     borderopacity="0.25"
     inkscape:showpageshadow="2"
     inkscape:pageopacity="0.0"
     inkscape:pagecheckerboard="0"
     inkscape:deskcolor="#d1d1d1"
     showgrid="false"
     inkscape:zoom="2.8284271"
     inkscape:cx="92.630988"
     inkscape:cy="61.51829"
     inkscape:window-width="1366"
     inkscape:window-height="697"
     inkscape:window-x="-8"
     inkscape:window-y="-8"
     inkscape:window-maximized="1"
     inkscape:current-layer="svg32049" />
  <linearGradient
     id="a"
     gradientTransform="rotate(12.472 51.024 66.974)"
     gradientUnits="userSpaceOnUse"
     x1="36.532"
     x2="79.042"
     y1="60.028"
     y2="57.085">
    <stop
       offset=".461"
       stop-color="#ffb300"
       id="stop31993" />
  </linearGradient>
  <path
     d="M77.8 55.41c.85-3.85 2.02-9.87 3.58-16.19s5.87-22.83 5.87-22.83L54.21 9.07s-6.25 32.73-8.78 44.17c-1.36 6.14-16.2 13.22-31.7 21.79-18.96 10.49-4.56 27.87 7.01 29.76 5.69.93 11-.82 15.26-4.35l16.24-11.62c3.63-2.54 8.41-4.29 12.85-5 6.52-1.05 13.08-5.53 14.54-12.15 1.82-8.15-2.68-12.41-1.83-16.26z"
     fill="url(#a)"
     id="path31996"
     style="fill:#ffb300;fill-opacity:1" />
  <defs
     id="defs31999">
    <path
       id="b"
       d="M77.8 55.41c.85-3.85 2.02-9.87 3.58-16.19s5.87-22.83 5.87-22.83L54.21 9.07s-6.25 32.73-8.78 44.17c-1.36 6.14-15.39 14.03-31.7 21.79-20.08 9.55-4.82 29.6 7.49 30.62 5.74.47 10.52-1.69 14.78-5.21l16.24-11.62c3.63-2.54 8.41-4.29 12.85-5 6.52-1.05 13.08-5.53 14.54-12.15 1.82-8.15-2.68-12.41-1.83-16.26z" />
    <linearGradient
       id="d"
       gradientTransform="rotate(-15.334,82.852,67.52)"
       gradientUnits="userSpaceOnUse"
       x1="79.591"
       x2="122.102"
       y1="69.455"
       y2="66.512">
      <stop
         offset=".461"
         stop-color="#ffb300"
         id="stop32020" />
    </linearGradient>
    <defs
       id="defs32026">
      <path
         id="e"
         d="M114.32 50.39c-1.04-3.81-2.82-9.67-4.39-16s-5.45-22.94-5.45-22.94L71.84 20.4s9.74 31.86 12.84 43.16c1.66 6.06-7.06 19.59-17.87 34.06-13.31 17.82 9.55 28.43 20.91 23.59 5.3-2.26 8.52-6.4 10.64-11.51l8.95-17.86c2.02-3.94 5.44-7.71 9.04-10.42 5.28-3.97 8.99-10.99 7.2-17.53-2.21-8.03-8.18-9.69-9.23-13.5z" />
    </defs>
    <clipPath
       id="f">
      <use
         xlink:href="#e"
         overflow="visible"
         id="use32028" />
    </clipPath>
    <linearGradient
       id="linearGradient32616"
       gradientTransform="rotate(12.472,51.024,66.974)"
       gradientUnits="userSpaceOnUse"
       x1="36.532001"
       x2="79.042"
       y1="60.028"
       y2="57.084999">
      <stop
         offset=".461"
         stop-color="#ffb300"
         id="stop31993-5" />
    </linearGradient>
  </defs>
  <clipPath
     id="c">
    <use
       xlink:href="#b"
       overflow="visible"
       id="use32001" />
  </clipPath>
  <path
     d="M38.91 100.35s-15.12 22.56-26.66 22.04c-14.38-.64-29.35-15.06-25.57-29.15 2.88-10.75 26.94-18.81 26.94-18.81s-2.12 6.03 6.36 16.01c8.64 10.17 18.93 9.91 18.93 9.91z"
     clip-path="url(#c)"
     fill="#f57c00"
     id="path32004" />
  <path
     id="ellipse32006"
     clip-path="url(#c)"
     d="M 76.956344 58.74597 A 17.98 18.690001 0 0 0 59.339238 77.409742 A 17.98 18.690001 0 0 0 60.400816 83.599402 C 61.230054 83.439352 62.056992 83.301455 62.869732 83.20809 C 69.429746 82.447152 76.182296 78.260977 77.933323 71.711945 C 79.513145 65.865119 77.693212 61.927792 76.956344 58.74597 z "
     transform="rotate(-2.532,77.831315,33.28421)"
     style="fill:#f57c00;fill-opacity:1" />
  <path
     d="M82.77 32.71l-31.08-6.87c-1.56-.35-2.49-2.19-2.06-4.11l2.92-13.21c.43-1.92 2.04-3.2 3.6-2.86l31.08 6.87c1.56.35 2.49 2.19 2.06 4.11l-2.92 13.21c-.42 1.93-2.03 3.21-3.6 2.86z"
     fill="#f57c00"
     id="path32010" />
  <g
     fill="#fbc02d"
     id="g32014">
    <path
       d="M57.99 22.53l-.29-.06a1.792 1.792 0 0 1-1.36-2.13l1.72-7.78c.21-.96 1.17-1.57 2.13-1.36l.29.06c.96.21 1.57 1.17 1.36 2.13l-1.72 7.78c-.22.96-1.17 1.57-2.13 1.36zM64.91 24.06l-.29-.06a1.792 1.792 0 0 1-1.36-2.13l1.72-7.78c.21-.96 1.17-1.57 2.13-1.36l.29.06c.96.21 1.57 1.17 1.36 2.13l-1.72 7.78c-.22.96-1.17 1.57-2.13 1.36zM71.83 25.59l-.29-.06a1.792 1.792 0 0 1-1.36-2.13l1.72-7.78c.21-.96 1.17-1.57 2.13-1.36l.29.06c.96.21 1.57 1.17 1.36 2.13l-1.72 7.78c-.21.96-1.16 1.57-2.13 1.36zM78.76 27.12l-.29-.06a1.792 1.792 0 0 1-1.36-2.13l1.72-7.78c.21-.96 1.17-1.57 2.13-1.36l.29.06c.96.21 1.57 1.17 1.36 2.13l-1.72 7.78c-.22.96-1.17 1.57-2.13 1.36z"
       id="path32012" />
  </g>
  <path
     id="path33785"
     style="opacity:0.2;fill:#000000;fill-opacity:1"
     d="M 82.691406 15.380859 L 69.570312 18.980469 C 68.030318 19.410466 67.198751 21.289459 67.71875 23.189453 L 71.298828 36.240234 C 71.738338 37.846141 73.000645 38.940238 74.316406 38.988281 C 75.700809 43.579404 77.07566 48.19903 78.388672 52.646484 C 79.176499 48.919429 80.121608 44.322287 81.380859 39.220703 C 82.940858 32.900709 87.25 16.390625 87.25 16.390625 L 82.691406 15.380859 z " />
  <path
     d="m 114.32,50.39 c -1.04,-3.81 -2.82,-9.67 -4.39,-16 -1.57,-6.33 -5.45,-22.94 -5.45,-22.94 L 71.84,20.4 c 0,0 9.74,31.86 12.84,43.16 1.66,6.06 -8.16,19.25 -17.87,34.06 -11.88,18.12 8.97,26.78 20.09,23.05 5.47,-1.84 9.34,-5.86 11.47,-10.97 l 8.95,-17.86 c 2.02,-3.94 5.44,-7.71 9.04,-10.42 5.28,-3.97 8.99,-10.99 7.2,-17.53 -2.22,-8.03 -8.19,-9.69 -9.24,-13.5 z"
     fill="url(#d)"
     id="path32023"
     style="fill:#ffb300;stroke:none;fill-opacity:1" />
  <path
     d="m 100.89,108.29 c 0,0 -2.85,27.01 -13.3,31.94 -13.02,6.14 -32.99,0.37 -36.22,-13.86 -2.47,-10.85 15.05,-29.2 15.05,-29.2 0,0 0.94,6.33 13.1,11.2 12.39,4.95 21.37,-0.08 21.37,-0.08 z"
     clip-path="url(#f)"
     fill="#f57c00"
     id="path32031"
     style="stroke:none" />
  <path
     id="ellipse32033"
     clip-path="url(#f)"
     style="stroke:none;fill:#f57c00;fill-opacity:1"
     d="M 116.15031 53.853699 A 18.690001 17.98 0 0 0 105.46948 70.079486 A 18.690001 17.98 0 0 0 110.66734 82.461223 C 116.39452 79.824729 121.26322 74.302157 121.26624 67.885804 C 121.25091 60.577651 117.15906 57.232391 116.15031 53.853699 z "
     transform="rotate(-15.334,107.57454,57.366723)" />
  <path
     d="M 108.13,27.99 77.44,36.41 C 75.89,36.83 74.22,35.64 73.7,33.74 L 70.12,20.69 c -0.52,-1.9 0.31,-3.78 1.85,-4.21 l 30.69,-8.42 c 1.55,-0.42 3.22,0.77 3.74,2.67 l 3.58,13.05 c 0.53,1.91 -0.31,3.79 -1.85,4.21 z"
     fill="#f57c00"
     id="path32037"
     style="stroke:none" />
  <g
     fill="#fbc02d"
     id="g32041"
     style="stroke:none">
    <path
       d="m 81.45,30.55 -0.29,0.08 c -0.95,0.26 -1.93,-0.3 -2.19,-1.25 L 76.86,21.7 c -0.26,-0.95 0.3,-1.93 1.25,-2.19 l 0.29,-0.08 c 0.95,-0.26 1.93,0.3 2.19,1.25 l 2.11,7.68 c 0.26,0.95 -0.3,1.93 -1.25,2.19 z M 88.29,28.67 88,28.75 c -0.95,0.26 -1.93,-0.3 -2.19,-1.25 L 83.7,19.82 c -0.26,-0.95 0.3,-1.93 1.25,-2.19 l 0.29,-0.08 c 0.95,-0.26 1.93,0.3 2.19,1.25 l 2.11,7.68 c 0.26,0.95 -0.3,1.93 -1.25,2.19 z m 6.84,-1.87 -0.29,0.08 c -0.95,0.26 -1.93,-0.3 -2.19,-1.25 l -2.11,-7.68 c -0.26,-0.95 0.3,-1.93 1.25,-2.19 l 0.29,-0.08 c 0.95,-0.26 1.93,0.3 2.19,1.25 l 2.11,7.68 c 0.26,0.94 -0.3,1.93 -1.25,2.19 z m 6.84,-1.88 -0.29,0.08 c -0.95,0.26 -1.93,-0.3 -2.19,-1.25 l -2.11,-7.68 c -0.26,-0.95 0.3,-1.93 1.25,-2.19 l 0.29,-0.08 c 0.95,-0.26 1.93,0.3 2.19,1.25 l 2.11,7.68 c 0.26,0.95 -0.3,1.93 -1.25,2.19 z"
       id="path32039"
       style="stroke:none" />
  </g>
</svg>

<?xml version="1.0" encoding="UTF-8" standalone="no"?>
<!DOCTYPE svg PUBLIC "-//W3C//DTD SVG 1.1//EN" "http://www.w3.org/Graphics/SVG/1.1/DTD/svg11.dtd">
<svg width="100%" height="100%" viewBox="0 0 128 128" version="1.1" xmlns="http://www.w3.org/2000/svg" xmlns:xlink="http://www.w3.org/1999/xlink" xml:space="preserve" xmlns:serif="http://www.serif.com/" style="fill-rule:evenodd;clip-rule:evenodd;stroke-linejoin:round;stroke-miterlimit:2;">
    <path id="path31996" d="M77.8,55.41C78.65,51.56 79.82,45.54 81.38,39.22C82.94,32.9 87.25,16.39 87.25,16.39L54.21,9.07C54.21,9.07 47.96,41.8 45.43,53.24C44.07,59.38 29.23,66.46 13.73,75.03C-5.23,85.52 9.17,102.9 20.74,104.79C26.43,105.72 31.74,103.97 36,100.44L52.24,88.82C55.87,86.28 60.65,84.53 65.09,83.82C71.61,82.77 78.17,78.29 79.63,71.67C81.45,63.52 76.95,59.26 77.8,55.41Z" style="fill:rgb(255,179,0);fill-rule:nonzero;"/>
    <clipPath id="_clip1">
        <path id="path32004" d="M77.8,55.41C78.65,51.56 79.82,45.54 81.38,39.22C82.94,32.9 87.25,16.39 87.25,16.39L54.21,9.07C54.21,9.07 47.96,41.8 45.43,53.24C44.07,59.38 30.04,67.27 13.73,75.03C-6.35,84.58 8.91,104.63 21.22,105.65C26.96,106.12 31.74,103.96 36,100.44L52.24,88.82C55.87,86.28 60.65,84.53 65.09,83.82C71.61,82.77 78.17,78.29 79.63,71.67C81.45,63.52 76.95,59.26 77.8,55.41Z"/>
    </clipPath>
    <g clip-path="url(#_clip1)">
        <path d="M38.91,100.35C38.91,100.35 23.79,122.91 12.25,122.39C-2.13,121.75 -17.1,107.33 -13.32,93.24C-10.44,82.49 13.62,74.43 13.62,74.43C13.62,74.43 11.5,80.46 19.98,90.44C28.62,100.61 38.91,100.35 38.91,100.35Z" style="fill:rgb(255,111,0);fill-rule:nonzero;"/>
    </g>
    <g id="ellipse32006" transform="matrix(0.999024,-0.0441774,0.0441774,0.999024,-1.39442,3.47088)">
        <clipPath id="_clip2">
            <path d="M77.8,55.41C78.65,51.56 79.82,45.54 81.38,39.22C82.94,32.9 87.25,16.39 87.25,16.39L54.21,9.07C54.21,9.07 47.96,41.8 45.43,53.24C44.07,59.38 30.04,67.27 13.73,75.03C-6.35,84.58 8.91,104.63 21.22,105.65C26.96,106.12 31.74,103.96 36,100.44L52.24,88.82C55.87,86.28 60.65,84.53 65.09,83.82C71.61,82.77 78.17,78.29 79.63,71.67C81.45,63.52 76.95,59.26 77.8,55.41Z"/>
        </clipPath>
        <g clip-path="url(#_clip2)">
            <path d="M76.956,58.746C67.24,58.95 59.351,67.308 59.339,77.41C59.354,79.52 59.713,81.613 60.401,83.599C61.23,83.439 62.057,83.301 62.87,83.208C69.43,82.447 76.182,78.261 77.933,71.712C79.513,65.865 77.693,61.928 76.956,58.746Z" style="fill:rgb(255,111,0);fill-rule:nonzero;"/>
        </g>
    </g>
    <path id="path32010" d="M82.77,32.71L51.69,25.84C50.13,25.49 49.2,23.65 49.63,21.73L52.55,8.52C52.98,6.6 54.59,5.32 56.15,5.66L87.23,12.53C88.79,12.88 89.72,14.72 89.29,16.64L86.37,29.85C85.95,31.78 84.34,33.06 82.77,32.71Z" style="fill:rgb(255,111,0);fill-rule:nonzero;"/>
    <g id="g32014">
        <path id="path32012" d="M57.99,22.53L57.7,22.47C56.744,22.256 56.132,21.297 56.34,20.34L58.06,12.56C58.27,11.6 59.23,10.99 60.19,11.2L60.48,11.26C61.44,11.47 62.05,12.43 61.84,13.39L60.12,21.17C59.9,22.13 58.95,22.74 57.99,22.53ZM64.91,24.06L64.62,24C63.664,23.786 63.052,22.827 63.26,21.87L64.98,14.09C65.19,13.13 66.15,12.52 67.11,12.73L67.4,12.79C68.36,13 68.97,13.96 68.76,14.92L67.04,22.7C66.82,23.66 65.87,24.27 64.91,24.06ZM71.83,25.59L71.54,25.53C70.584,25.316 69.972,24.357 70.18,23.4L71.9,15.62C72.11,14.66 73.07,14.05 74.03,14.26L74.32,14.32C75.28,14.53 75.89,15.49 75.68,16.45L73.96,24.23C73.75,25.19 72.8,25.8 71.83,25.59ZM78.76,27.12L78.47,27.06C77.514,26.846 76.902,25.887 77.11,24.93L78.83,17.15C79.04,16.19 80,15.58 80.96,15.79L81.25,15.85C82.21,16.06 82.82,17.02 82.61,17.98L80.89,25.76C80.67,26.72 79.72,27.33 78.76,27.12Z" style="fill:rgb(255,179,0);fill-rule:nonzero;"/>
    </g>
    <path id="path33785" d="M82.691,15.381L69.57,18.98C68.03,19.41 67.199,21.289 67.719,23.189L71.299,36.24C71.738,37.846 73.001,38.94 74.316,38.988C75.701,43.579 77.076,48.199 78.389,52.646C79.176,48.919 80.122,44.322 81.381,39.221C82.941,32.901 87.25,16.391 87.25,16.391L82.691,15.381Z" style="fill-opacity:0.2;fill-rule:nonzero;"/>
    <path id="path32023" d="M114.32,50.39C113.28,46.58 111.5,40.72 109.93,34.39C108.36,28.06 104.48,11.45 104.48,11.45L71.84,20.4C71.84,20.4 81.58,52.26 84.68,63.56C86.34,69.62 76.52,82.81 66.81,97.62C54.93,115.74 75.78,124.4 86.9,120.67C92.37,118.83 96.24,114.81 98.37,109.7L107.32,91.84C109.34,87.9 112.76,84.13 116.36,81.42C121.64,77.45 125.35,70.43 123.56,63.89C121.34,55.86 115.37,54.2 114.32,50.39Z" style="fill:rgb(255,179,0);fill-rule:nonzero;"/>
    <clipPath id="_clip3">
        <path id="path32031" d="M114.32,50.39C113.28,46.58 111.5,40.72 109.93,34.39C108.36,28.06 104.48,11.45 104.48,11.45L71.84,20.4C71.84,20.4 81.58,52.26 84.68,63.56C86.34,69.62 77.62,83.15 66.81,97.62C53.5,115.44 76.36,126.05 87.72,121.21C93.02,118.95 96.24,114.81 98.36,109.7L107.31,91.84C109.33,87.9 112.75,84.13 116.35,81.42C121.63,77.45 125.34,70.43 123.55,63.89C121.34,55.86 115.37,54.2 114.32,50.39Z"/>
    </clipPath>
    <g clip-path="url(#_clip3)">
        <path d="M100.89,108.29C100.89,108.29 98.04,135.3 87.59,140.23C74.57,146.37 54.6,140.6 51.37,126.37C48.9,115.52 66.42,97.17 66.42,97.17C66.42,97.17 67.36,103.5 79.52,108.37C91.91,113.32 100.89,108.29 100.89,108.29Z" style="fill:rgb(255,111,0);fill-rule:nonzero;"/>
    </g>
    <g id="ellipse32033" transform="matrix(0.964401,-0.264445,0.264445,0.964401,-11.3408,30.4898)">
        <clipPath id="_clip4">
            <path d="M114.32,50.39C113.28,46.58 111.5,40.72 109.93,34.39C108.36,28.06 104.48,11.45 104.48,11.45L71.84,20.4C71.84,20.4 81.58,52.26 84.68,63.56C86.34,69.62 77.62,83.15 66.81,97.62C53.5,115.44 76.36,126.05 87.72,121.21C93.02,118.95 96.24,114.81 98.36,109.7L107.31,91.84C109.33,87.9 112.75,84.13 116.35,81.42C121.63,77.45 125.34,70.43 123.55,63.89C121.34,55.86 115.37,54.2 114.32,50.39Z"/>
        </clipPath>
        <g clip-path="url(#_clip4)">
            <path d="M116.15,53.854C109.645,56.822 105.477,63.153 105.469,70.079C105.486,74.694 107.348,79.13 110.667,82.461C116.395,79.825 121.263,74.302 121.266,67.886C121.251,60.578 117.159,57.232 116.15,53.854Z" style="fill:rgb(255,111,0);fill-rule:nonzero;"/>
        </g>
    </g>
    <path id="path32037" d="M108.13,27.99L77.44,36.41C75.89,36.83 74.22,35.64 73.7,33.74L70.12,20.69C69.6,18.79 70.43,16.91 71.97,16.48L102.66,8.06C104.21,7.64 105.88,8.83 106.4,10.73L109.98,23.78C110.51,25.69 109.67,27.57 108.13,27.99Z" style="fill:rgb(255,111,0);fill-rule:nonzero;"/>
    <g id="g32041">
        <path id="path32039" d="M81.45,30.55L81.16,30.63C80.21,30.89 79.23,30.33 78.97,29.38L76.86,21.7C76.6,20.75 77.16,19.77 78.11,19.51L78.4,19.43C79.35,19.17 80.33,19.73 80.59,20.68L82.7,28.36C82.96,29.31 82.4,30.29 81.45,30.55ZM88.29,28.67L88,28.75C87.05,29.01 86.07,28.45 85.81,27.5L83.7,19.82C83.44,18.87 84,17.89 84.95,17.63L85.24,17.55C86.19,17.29 87.17,17.85 87.43,18.8L89.54,26.48C89.8,27.43 89.24,28.41 88.29,28.67ZM95.13,26.8L94.84,26.88C93.89,27.14 92.91,26.58 92.65,25.63L90.54,17.95C90.28,17 90.84,16.02 91.79,15.76L92.08,15.68C93.03,15.42 94.01,15.98 94.27,16.93L96.38,24.61C96.64,25.55 96.08,26.54 95.13,26.8ZM101.97,24.92L101.68,25C100.73,25.26 99.75,24.7 99.49,23.75L97.38,16.07C97.12,15.12 97.68,14.14 98.63,13.88L98.92,13.8C99.87,13.54 100.85,14.1 101.11,15.05L103.22,22.73C103.48,23.68 102.92,24.66 101.97,24.92Z" style="fill:rgb(255,179,0);fill-rule:nonzero;"/>
    </g>
</svg>
